packages/frontend/src/icons/tip.svg

<?xml version="1.0" encoding="UTF-8"?>
<svg width="12px" height="12px" viewBox="0 0 12 12" version="1.1" xmlns="http://www.w3.org/2000/svg" xmlns:xlink="http://www.w3.org/1999/xlink">
    <title>icon / 12 / 提示</title>
    <g id="icon-/-12-/-提示" stroke="none" stroke-width="1" fill="none" fill-rule="evenodd">
        <g id="提示" fill="#999999" fill-rule="nonzero">
            <path d="M5.98660714,11.9600439 C2.69304062,11.9600439 0.0131703884,9.28061142 0.0131703884,5.98660714 C0.0131703884,2.69304062 2.69301757,0.0131703884 5.98660714,0.0131703884 C9.2806114,0.0131703884 11.9600439,2.69260287 11.9600439,5.98660714 C11.9600439,9.28061142 9.2806114,11.9600439 5.98660714,11.9600439 Z M5.98660714,0.870313246 C3.16532736,0.870313246 0.870313246,3.16530431 0.870313246,5.98660714 C0.870313246,8.80747223 3.16530431,11.102901 5.98660714,11.102901 C8.80747223,11.102901 11.102901,8.80790997 11.102901,5.98660714 C11.102901,3.16530431 8.80747223,0.870313246 5.98660714,0.870313246 Z" id="形状"></path>
            <path d="M5.34374424,3.20089862 C5.34374424,3.55594306 5.6315627,3.84376152 5.98660714,3.84376152 C6.34165158,3.84376152 6.62947004,3.55594306 6.62947004,3.20089862 C6.62947004,2.84585417 6.34165158,2.55803571 5.98660714,2.55803571 C5.6315627,2.55803571 5.34374424,2.84585417 5.34374424,3.20089862 Z" id="路径"></path>
            <path d="M5.98660714,9.41517857 C5.75002604,9.41517857 5.5580242,9.22361446 5.5580242,8.98659562 L5.5580242,5.12946429 C5.5580242,4.89288319 5.75002604,4.70088134 5.98660714,4.70088134 C6.22318824,4.70088134 6.41519009,4.89288319 6.41519009,5.12946429 L6.41519009,8.98659562 C6.41519009,9.22361446 6.22318824,9.41517857 5.98660714,9.41517857 Z" id="路径"></path>
        </g>
    </g>
</svg>

<svg width="12" height="12" viewBox="0 0 12 12" xmlns="http://www.w3.org/2000/svg"><g fill="#999" fill-rule="nonzero"><path d="M5.987 11.96A5.98 5.98 0 0 1 .013 5.987 5.98 5.98 0 0 1 5.987.013a5.98 5.98 0 0 1 5.973 5.974 5.98 5.98 0 0 1-5.973 5.973zm0-11.09A5.122 5.122 0 0 0 .87 5.987a5.122 5.122 0 0 0 5.117 5.116 5.122 5.122 0 0 0 5.116-5.116A5.122 5.122 0 0 0 5.987.87z"/><path d="M5.344 3.2a.643.643 0 1 0 1.285 0 .643.643 0 0 0-1.285 0zM5.987 9.415a.428.428 0 0 1-.429-.428V5.129a.429.429 0 0 1 .857 0v3.858a.428.428 0 0 1-.428.428z"/></g></svg>
